public/assets/images/icons/feature-icon3.svg

<svg width="32" height="30" viewBox="0 0 32 30" fill="none" xmlns="http://www.w3.org/2000/svg">
<g clip-path="url(#clip0_1182_4044)">
<path d="M2.16844 1.20844C2.8659 0.509622 3.99869 0.509622 4.69614 1.20844L9.23663 5.75778L12.1997 2.78898C13.7677 1.21782 16.3142 1.21782 17.8824 2.78898L26.3314 11.2545C27.9042 12.8257 27.9042 15.377 26.3314 16.9482L15.7057 27.5994C13.6133 29.6958 10.2196 29.6958 8.12726 27.5994L1.56928 21.0333C-0.523093 18.9368 -0.523093 15.5365 1.56928 13.4401L6.70894 8.23882L2.16844 3.74107C1.47098 3.04225 1.47098 1.90726 2.16844 1.20844ZM11.9937 13.5807L9.23663 10.823L4.09699 15.9727C3.86294 16.2072 3.70846 16.4886 3.62889 16.7887H21.4398L23.8037 14.425C23.9769 14.2468 23.9769 13.9653 23.8037 13.7871L15.3593 5.32161C15.1814 5.14808 14.9005 5.14808 14.7227 5.32161L11.7644 8.29042L14.5167 11.0528C15.2141 11.7517 15.2141 12.882 14.5167 13.5807C13.8193 14.2796 12.6912 14.2796 11.9937 13.5807ZM24.8616 25.7374C24.8616 24.3304 26.6824 21.2865 27.717 19.6591C28.0587 19.1338 28.8029 19.1338 29.1446 19.6591C30.1838 21.2865 32 24.3257 32 25.7374C32 27.7119 30.3992 29.3159 28.4285 29.3159C26.4578 29.3159 24.8569 27.7119 24.8569 25.7374H24.8616Z" fill="black"/>
</g>
<defs>
<clipPath id="clip0_1182_4044">
<rect width="32" height="28.6316" fill="white" transform="translate(0 0.684326)"/>
</clipPath>
</defs>
</svg>

<svg xmlns="http://www.w3.org/2000/svg" width="32" height="30" fill="none"><g clip-path="url(#a)"><path fill="#000" d="M2.168 1.208a1.786 1.786 0 0 1 2.528 0l4.54 4.55L12.2 2.789a4.015 4.015 0 0 1 5.682 0l8.45 8.465a4.025 4.025 0 0 1 0 5.694L15.705 27.6a5.35 5.35 0 0 1-7.579 0L1.57 21.033a5.377 5.377 0 0 1 0-7.593L6.71 8.24 2.169 3.74a1.794 1.794 0 0 1 0-2.533m9.826 12.373-2.757-2.758-5.14 5.15a1.8 1.8 0 0 0-.468.816h17.81l2.365-2.364a.457.457 0 0 0 0-.638l-8.445-8.465a.454.454 0 0 0-.636 0L11.764 8.29l2.753 2.763c.697.699.697 1.829 0 2.528a1.78 1.78 0 0 1-2.523 0m12.868 12.156c0-1.407 1.82-4.45 2.855-6.078a.844.844 0 0 1 1.428 0C30.184 21.287 32 24.326 32 25.737c0 1.975-1.6 3.579-3.572 3.579a3.577 3.577 0 0 1-3.571-3.579z"/></g><defs><clipPath id="a"><path fill="#fff" d="M0 .684h32v28.632H0z"/></clipPath></defs></svg>
